!!!COM: Anon.
!!!OCL: Francis James Child
!!!OPR: The English and Scottish Popular Ballads
!!!OVM: Vol. 1
!!!ONB: Ballad No. 10, Tune No. 4
!!!ONM: No. 10
!!!PDT: 1882
!!!YEM: Public domain.
**kern
*M4/4
*a:
{8c
8d
=1
4e
4e
4.cc
8b
=2
4a
8e
8e
4d}
!! Second phrase:
{8c
8d
=3
4.e
8g
4e
8d
8e
=4
4g
4a}
4r
!! Third phrase:
{8cc
8dd
=5
4ee
8ee
8ee
4cc
8cc
8a
=6
4g
4e
4d}
!! Fourth phrase:
{8c
8d
=7
4e
8e
8e
8d
8d
8c
8d
=8
4e
4a}
4r
====
*-
!!!OCY: Britain; England
!!!PPP: Boston
!!!ODT: <1882
!!!AFR: folk song
!!!AST: monophony
!!!AMT: simple quadruple
!!!SCA: Child Collection
!!!AIN: vox
!!!EEV: 1.0
!!!RDT: 1987 June
!!!YER: 1994 August 10
!!!VTS: 652652838
